X: 2
T: Holloway
M:C|
L:1/8
K:D
|:\
"D"fa2f a2fa- | abaf ed3 | "G"B3A BABc | dcdA "A"FA3 |
"D"fa2f a2fa- | abaf ed3 | "G"B3A BcdB | "A"AFEF "D"D4 :|
|:\
"G"B4 d3e | fede fa3 | "Bm"b2 b2- b2a2 | b2a f2ed2 |
"G"B4 d3e | fede fa2a | "Bm"b2a f2e df | "A"ed c2 "D"d4 :|]
%%text Transition: cut last note REALLY short and play pickups.


